Newaita/actions/symbolic/mark-location-symbolic.svg

<svg height="16" viewBox="0 0 16 16" width="16" xmlns="http://www.w3.org/2000/svg"><path d="m7.9375.785156c-2.929688 0-5.292969 2.363282-5.292969 5.292969 0 3.96875 4.300781 9.261719 5.292969 9.261719 1.007812.011718 5.292969-5.292969 5.292969-9.261719 0-2.929687-2.359375-5.292969-5.292969-5.292969zm0 1.984375c1.285156 0 2.316406 1.035157 2.316406 2.316407s-1.03125 2.316406-2.316406 2.316406c-1.28125 0-2.316406-1.035156-2.316406-2.316406s1.035156-2.316407 2.316406-2.316407zm0 0" fill="#424242"/></svg>

<?xml version="1.0" encoding="UTF-8"?>
<svg xmlns="http://www.w3.org/2000/svg" xmlns:xlink="http://www.w3.org/1999/xlink" width="16px" height="16px" viewBox="0 0 16 16" version="1.1">
<g id="surface1">
<path style=" stroke:none;fill-rule:nonzero;fill:rgb(25.882354%,25.882354%,25.882354%);fill-opacity:1;" d="M 7.9375 0.785156 C 5.007812 0.785156 2.644531 3.148438 2.644531 6.078125 C 2.644531 10.046875 6.945312 15.339844 7.9375 15.339844 C 8.945312 15.351562 13.230469 10.046875 13.230469 6.078125 C 13.230469 3.148438 10.871094 0.785156 7.9375 0.785156 Z M 7.9375 2.769531 C 9.222656 2.769531 10.253906 3.804688 10.253906 5.085938 C 10.253906 6.367188 9.222656 7.402344 7.9375 7.402344 C 6.65625 7.402344 5.621094 6.367188 5.621094 5.085938 C 5.621094 3.804688 6.65625 2.769531 7.9375 2.769531 Z M 7.9375 2.769531 "/>
</g>
</svg>
